assets/biometric.svg

<svg fill="none" height="18" viewBox="0 0 20 18" width="20" xmlns="http://www.w3.org/2000/svg"><g fill="#fff"><path d="m18.7041 17.0004h-16.62615c-.59436 0-1.07756-.4832-1.07756-1.0776v-7.85365c0-.59209.4832-1.07528 1.07529-1.07528h1.17057v.68056h-1.17057c-.21778 0-.39473.17694-.39473.39472v7.85145c0 .22.17922.397.397.397h16.62615c.22 0 .3993-.1792.3993-.3993v-7.84915c0-.21778-.177-.39472-.3948-.39472h-8.81552v-.68056h8.81552c.5921 0 1.0753.48319 1.0753 1.07528v7.84915c0 .5966-.4832 1.0821-1.0798 1.0821z"/><path clip-rule="evenodd" d="m3.34625 6.89387v.88056h-1.27057c-.16255 0-.29473.13217-.29473.29472v7.85145c0 .1644.13407.297.297.297h16.62615c.1648 0 .2993-.1345.2993-.2993v-7.84915c0-.16255-.1322-.29472-.2948-.29472h-8.91552v-.88056h8.91552c.6473 0 1.1753.52797 1.1753 1.17528v7.84915c0 .6516-.5277 1.1821-1.1798 1.1821h-16.62615c-.64959 0-1.177559-.528-1.177559-1.1776v-7.85365c0-.64731.527969-1.17528 1.175289-1.17528zm-1.2683 10.10653h16.62615c.5966 0 1.0798-.4855 1.0798-1.0821v-7.84915c0-.59209-.4832-1.07528-1.0753-1.07528h-8.81552v.68056h8.81552c.2178 0 .3948.17694.3948.39472v7.84915c0 .2201-.1793.3993-.3993.3993h-16.62615c-.21778 0-.397-.177-.397-.397v-7.85145c0-.21778.17695-.39472.39473-.39472h1.17057v-.68056h-1.17057c-.59209 0-1.07529.48319-1.07529 1.07528v7.85365c0 .5944.4832 1.0776 1.07756 1.0776z" fill-rule="evenodd"/><path d="m5.66906 11.7419h-.68056v2.9468h.68056z"/><path clip-rule="evenodd" d="m4.8885 11.6419h.88056v3.1468h-.88056zm.78056.1v2.9468h-.68056v-2.9468z" fill-rule="evenodd"/><path d="m6.77588 13.6558-2.55196-1.4734-.34028.5893 2.55196 1.4735z"/><path clip-rule="evenodd" d="m4.18732 12.0458 2.72516 1.5734-.44028.7626-2.72516-1.5735zm2.58856 1.61-.34028.5894-2.55196-1.4735.34028-.5893z" fill-rule="evenodd"/><path d="m6.7748 12.7715-.34028-.5894-2.55196 1.4735.34028.5893z"/><path clip-rule="evenodd" d="m6.47112 12.0455.44028.7626-2.72516 1.5734-.44028-.7625zm.30368.726-2.55196 1.4734-.34028-.5893 2.55196-1.4735z" fill-rule="evenodd"/><path d="m10.7324 11.7419h-.6805v2.9468h.6805z"/><path clip-rule="evenodd" d="m9.95189 11.6419h.88051v3.1468h-.88051zm.78051.1v2.9468h-.6805v-2.9468z" fill-rule="evenodd"/><path d="m11.8389 13.6564-2.55195-1.4734-.34028.5893 2.55193 1.4735z"/><path clip-rule="evenodd" d="m9.25035 12.0464 2.72515 1.5734-.4403.7626-2.72513-1.5735zm2.58855 1.61-.3403.5894-2.55193-1.4735.34028-.5893z" fill-rule="evenodd"/><path d="m11.8377 12.7725-.3403-.5894-2.55199 1.4734.34028.5894z"/><path clip-rule="evenodd" d="m11.534 12.0465.4403.7626-2.72521 1.5734-.44028-.7626zm.3037.726-2.55201 1.4734-.34028-.5894 2.55199-1.4734z" fill-rule="evenodd"/><path d="m15.7958 11.7419h-.6805v2.9468h.6805z"/><path clip-rule="evenodd" d="m15.0153 11.6419h.8805v3.1468h-.8805zm.7805.1v2.9468h-.6805v-2.9468z" fill-rule="evenodd"/><path d="m16.9001 13.6558-2.552-1.4734-.3402.5893 2.5519 1.4735z"/><path clip-rule="evenodd" d="m14.3115 12.0458 2.7252 1.5734-.4403.7626-2.7251-1.5735zm2.5886 1.61-.3403.5894-2.5519-1.4735.3402-.5893z" fill-rule="evenodd"/><path d="m16.9004 12.7733-.3402-.5894-2.552 1.4734.3403.5894z"/><path clip-rule="evenodd" d="m16.5968 12.0473.4402.7626-2.7251 1.5734-.4403-.7626zm.3036.726-2.5519 1.4734-.3403-.5894 2.552-1.4734z" fill-rule="evenodd"/><path d="m9.2193 10.2856h-5.30159c-.55806 0-1.01177-.45371-1.01177-1.01177v-4.19454c0-.55806.45371-1.01177 1.01177-1.01177h5.29478c.5626 0 1.02081.45825 1.02081 1.02085v4.18092c0 .56033-.45594 1.01631-1.014 1.01631zm-5.30159-5.53525c-.18148 0-.3312.14746-.3312.33121v4.19453c0 .18149.14745.33121.3312.33121h5.30159c.18375 0 .33347-.14972.33347-.33347v-4.1832c0-.18828-.15199-.34028-.34028-.34028z"/><path clip-rule="evenodd" d="m9.2193 10.3856h-5.30159c-.61329 0-1.11177-.49848-1.11177-1.11177v-4.19454c0-.61329.49848-1.11177 1.11177-1.11177h5.29478c.61783 0 1.12081.50302 1.12081 1.12085v4.18092c0 .61541-.50057 1.11631-1.114 1.11631zm-5.30159-5.53525c-.1267 0-.2312.10313-.2312.23121v4.19453c0 .12671.10313.23121.2312.23121h5.30159c.12852 0 .23347-.10495.23347-.23347v-4.1832c0-.13306-.10722-.24028-.24028-.24028zm0 5.43525h5.30159c.55806 0 1.014-.45598 1.014-1.01631v-4.18092c0-.5626-.45821-1.02085-1.02081-1.02085h-5.29478c-.55806 0-1.01177.45371-1.01177 1.01177v4.19454c0 .55806.45371 1.01177 1.01177 1.01177zm-.3312-5.20404c0-.18375.14972-.33121.3312-.33121h5.29478c.18829 0 .34028.152.34028.34028v4.1832c0 .18375-.14972.33347-.33347.33347h-5.30159c-.18375 0-.3312-.14972-.3312-.33121z" fill-rule="evenodd"/><path d="m4.3578 4.75483v-1.53807c0-1.22275.99362-2.21637 2.2141-2.21637.58755 0 1.14334.23139 1.56302.65107.41741.41741.6488.97321.6488 1.5653v1.53807zm3.74309-.68057v-.8575c0-.41061-.15879-.79626-.44917-1.08437-.29037-.29037-.67602-.45144-1.08209-.45144-.84617 0-1.53354.68964-1.53354 1.53581v.8575z"/><g clip-rule="evenodd" fill-rule="evenodd"><path d="m4.2578 4.85483v-1.63807c0-1.27791 1.03832-2.316369 2.3141-2.316369.61435 0 1.1955.242129 1.63373.680359.4361.4361.67809 1.0173.67809 1.63601v1.63807zm3.32321-2.65173c-.27189-.27189-.63222-.42215-1.01138-.42215-.79075 0-1.43354.64468-1.43354 1.43581v.7575h2.8648v-.7575c0-.38431-.14868-.74458-.41988-1.01366zm.51988 1.87116h-3.0648v-.8575c0-.84617.68737-1.53581 1.53354-1.53581.40607 0 .79172.16107 1.08209.45144.29038.28811.44917.67376.44917 1.08437zm.68283.68057v-1.53807c0-.59209-.23139-1.14789-.6488-1.5653-.41968-.41968-.97547-.65107-1.56302-.65107-1.22048 0-2.2141.99362-2.2141 2.21637v1.53807z"/><path d="m6.21816 8.17037c-.00003-.00001.00004.00001 0 0zm.78047-.03471c.34248-.16208.58084-.51094.58084-.91531 0-.55884-.45311-1.01195-1.01195-1.01195-.55885 0-1.01195.45311-1.01195 1.01195 0 .39741.22914.74136.5625.9069v.60684h.88056zm-.5625-.91531c0-.07181.05958-.13139.13139-.13139s.13139.05958.13139.13139-.05958.13139-.13139.13139-.13139-.05958-.13139-.13139z"/></g></g></svg>

<svg width="20" height="18" viewBox="0 0 20 18" fill="none" xmlns="http://www.w3.org/2000/svg">
<path d="M18.7041 17.0004H2.07795C1.48359 17.0004 1.00039 16.5172 1.00039 15.9228V8.06915C1.00039 7.47706 1.48359 6.99387 2.07568 6.99387H3.24625V7.67443H2.07568C1.8579 7.67443 1.68095 7.85137 1.68095 8.06915V15.9206C1.68095 16.1406 1.86017 16.3176 2.07795 16.3176H18.7041C18.9241 16.3176 19.1034 16.1384 19.1034 15.9183V8.06915C19.1034 7.85137 18.9264 7.67443 18.7086 7.67443H9.89308V6.99387H18.7086C19.3007 6.99387 19.7839 7.47706 19.7839 8.06915V15.9183C19.7839 16.5149 19.3007 17.0004 18.7041 17.0004Z" fill="white"/>
<path fill-rule="evenodd" clip-rule="evenodd" d="M3.34625 6.89387V7.77443H2.07568C1.91313 7.77443 1.78095 7.9066 1.78095 8.06915V15.9206C1.78095 16.085 1.91502 16.2176 2.07795 16.2176H18.7041C18.8689 16.2176 19.0034 16.0831 19.0034 15.9183V8.06915C19.0034 7.9066 18.8712 7.77443 18.7086 7.77443H9.79308V6.89387H18.7086C19.3559 6.89387 19.8839 7.42184 19.8839 8.06915V15.9183C19.8839 16.5699 19.3562 17.1004 18.7041 17.1004H2.07795C1.42836 17.1004 0.900391 16.5724 0.900391 15.9228V8.06915C0.900391 7.42184 1.42836 6.89387 2.07568 6.89387H3.34625ZM2.07795 17.0004H18.7041C19.3007 17.0004 19.7839 16.5149 19.7839 15.9183V8.06915C19.7839 7.47706 19.3007 6.99387 18.7086 6.99387H9.89308V7.67443H18.7086C18.9264 7.67443 19.1034 7.85137 19.1034 8.06915V15.9183C19.1034 16.1384 18.9241 16.3176 18.7041 16.3176H2.07795C1.86017 16.3176 1.68095 16.1406 1.68095 15.9206V8.06915C1.68095 7.85137 1.8579 7.67443 2.07568 7.67443H3.24625V6.99387H2.07568C1.48359 6.99387 1.00039 7.47706 1.00039 8.06915V15.9228C1.00039 16.5172 1.48359 17.0004 2.07795 17.0004Z" fill="white"/>
<path d="M5.66906 11.7419H4.9885V14.6887H5.66906V11.7419Z" fill="white"/>
<path fill-rule="evenodd" clip-rule="evenodd" d="M4.8885 11.6419H5.76906V14.7887H4.8885V11.6419ZM5.66906 11.7419V14.6887H4.9885V11.7419H5.66906Z" fill="white"/>
<path d="M6.77588 13.6558L4.22392 12.1824L3.88364 12.7717L6.4356 14.2452L6.77588 13.6558Z" fill="white"/>
<path fill-rule="evenodd" clip-rule="evenodd" d="M4.18732 12.0458L6.91248 13.6192L6.4722 14.3818L3.74704 12.8083L4.18732 12.0458ZM6.77588 13.6558L6.4356 14.2452L3.88364 12.7717L4.22392 12.1824L6.77588 13.6558Z" fill="white"/>
<path d="M6.7748 12.7715L6.43452 12.1821L3.88256 13.6556L4.22284 14.2449L6.7748 12.7715Z" fill="white"/>
<path fill-rule="evenodd" clip-rule="evenodd" d="M6.47112 12.0455L6.9114 12.8081L4.18624 14.3815L3.74596 13.619L6.47112 12.0455ZM6.7748 12.7715L4.22284 14.2449L3.88256 13.6556L6.43452 12.1821L6.7748 12.7715Z" fill="white"/>
<path d="M10.7324 11.7419H10.0519V14.6887H10.7324V11.7419Z" fill="white"/>
<path fill-rule="evenodd" clip-rule="evenodd" d="M9.95189 11.6419H10.8324V14.7887H9.95189V11.6419ZM10.7324 11.7419V14.6887H10.0519V11.7419H10.7324Z" fill="white"/>
<path d="M11.8389 13.6564L9.28695 12.183L8.94667 12.7723L11.4986 14.2458L11.8389 13.6564Z" fill="white"/>
<path fill-rule="evenodd" clip-rule="evenodd" d="M9.25035 12.0464L11.9755 13.6198L11.5352 14.3824L8.81007 12.8089L9.25035 12.0464ZM11.8389 13.6564L11.4986 14.2458L8.94667 12.7723L9.28695 12.183L11.8389 13.6564Z" fill="white"/>
<path d="M11.8377 12.7725L11.4974 12.1831L8.94541 13.6565L9.28569 14.2459L11.8377 12.7725Z" fill="white"/>
<path fill-rule="evenodd" clip-rule="evenodd" d="M11.534 12.0465L11.9743 12.8091L9.24909 14.3825L8.80881 13.6199L11.534 12.0465ZM11.8377 12.7725L9.28569 14.2459L8.94541 13.6565L11.4974 12.1831L11.8377 12.7725Z" fill="white"/>
<path d="M15.7958 11.7419H15.1153V14.6887H15.7958V11.7419Z" fill="white"/>
<path fill-rule="evenodd" clip-rule="evenodd" d="M15.0153 11.6419H15.8958V14.7887H15.0153V11.6419ZM15.7958 11.7419V14.6887H15.1153V11.7419H15.7958Z" fill="white"/>
<path d="M16.9001 13.6558L14.3481 12.1824L14.0079 12.7717L16.5598 14.2452L16.9001 13.6558Z" fill="white"/>
<path fill-rule="evenodd" clip-rule="evenodd" d="M14.3115 12.0458L17.0367 13.6192L16.5964 14.3818L13.8713 12.8083L14.3115 12.0458ZM16.9001 13.6558L16.5598 14.2452L14.0079 12.7717L14.3481 12.1824L16.9001 13.6558Z" fill="white"/>
<path d="M16.9004 12.7733L16.5602 12.1839L14.0082 13.6573L14.3485 14.2467L16.9004 12.7733Z" fill="white"/>
<path fill-rule="evenodd" clip-rule="evenodd" d="M16.5968 12.0473L17.037 12.8099L14.3119 14.3833L13.8716 13.6207L16.5968 12.0473ZM16.9004 12.7733L14.3485 14.2467L14.0082 13.6573L16.5602 12.1839L16.9004 12.7733Z" fill="white"/>
<path d="M9.2193 10.2856H3.91771C3.35965 10.2856 2.90594 9.83189 2.90594 9.27383V5.07929C2.90594 4.52123 3.35965 4.06752 3.91771 4.06752H9.21249C9.77509 4.06752 10.2333 4.52577 10.2333 5.08837V9.26929C10.2333 9.82962 9.77736 10.2856 9.2193 10.2856ZM3.91771 4.75035C3.73623 4.75035 3.58651 4.89781 3.58651 5.08156V9.27609C3.58651 9.45758 3.73396 9.6073 3.91771 9.6073H9.2193C9.40305 9.6073 9.55277 9.45758 9.55277 9.27383V5.09063C9.55277 4.90235 9.40078 4.75035 9.21249 4.75035H3.91771Z" fill="white"/>
<path fill-rule="evenodd" clip-rule="evenodd" d="M9.2193 10.3856H3.91771C3.30442 10.3856 2.80594 9.88712 2.80594 9.27383V5.07929C2.80594 4.466 3.30442 3.96752 3.91771 3.96752H9.21249C9.83032 3.96752 10.3333 4.47054 10.3333 5.08837V9.26929C10.3333 9.8847 9.83273 10.3856 9.2193 10.3856ZM3.91771 4.85035C3.79101 4.85035 3.68651 4.95348 3.68651 5.08156V9.27609C3.68651 9.4028 3.78964 9.5073 3.91771 9.5073H9.2193C9.34782 9.5073 9.45277 9.40235 9.45277 9.27383V5.09063C9.45277 4.95757 9.34555 4.85035 9.21249 4.85035H3.91771ZM3.91771 10.2856H9.2193C9.77736 10.2856 10.2333 9.82962 10.2333 9.26929V5.08837C10.2333 4.52577 9.77509 4.06752 9.21249 4.06752H3.91771C3.35965 4.06752 2.90594 4.52123 2.90594 5.07929V9.27383C2.90594 9.83189 3.35965 10.2856 3.91771 10.2856ZM3.58651 5.08156C3.58651 4.89781 3.73623 4.75035 3.91771 4.75035H9.21249C9.40078 4.75035 9.55277 4.90235 9.55277 5.09063V9.27383C9.55277 9.45758 9.40305 9.6073 9.2193 9.6073H3.91771C3.73396 9.6073 3.58651 9.45758 3.58651 9.27609V5.08156Z" fill="white"/>
<path d="M4.3578 4.75483V3.21676C4.3578 1.99401 5.35142 1.00039 6.5719 1.00039C7.15945 1.00039 7.71524 1.23178 8.13492 1.65146C8.55233 2.06887 8.78372 2.62467 8.78372 3.21676V4.75483H4.3578ZM8.10089 4.07426V3.21676C8.10089 2.80615 7.9421 2.4205 7.65172 2.13239C7.36135 1.84202 6.9757 1.68095 6.56963 1.68095C5.72346 1.68095 5.03609 2.37059 5.03609 3.21676V4.07426H8.10089Z" fill="white"/>
<path fill-rule="evenodd" clip-rule="evenodd" d="M4.2578 4.85483V3.21676C4.2578 1.93885 5.29612 0.900391 6.5719 0.900391C7.18625 0.900391 7.7674 1.14252 8.20563 1.58075C8.64173 2.01685 8.88372 2.59805 8.88372 3.21676V4.85483H4.2578ZM7.58101 2.2031C7.30912 1.93121 6.94879 1.78095 6.56963 1.78095C5.77888 1.78095 5.13609 2.42563 5.13609 3.21676V3.97426H8.00089V3.21676C8.00089 2.83245 7.85221 2.47218 7.58101 2.2031ZM8.10089 4.07426H5.03609V3.21676C5.03609 2.37059 5.72346 1.68095 6.56963 1.68095C6.9757 1.68095 7.36135 1.84202 7.65172 2.13239C7.9421 2.4205 8.10089 2.80615 8.10089 3.21676V4.07426ZM8.78372 4.75483V3.21676C8.78372 2.62467 8.55233 2.06887 8.13492 1.65146C7.71524 1.23178 7.15945 1.00039 6.5719 1.00039C5.35142 1.00039 4.3578 1.99401 4.3578 3.21676V4.75483H8.78372Z" fill="white"/>
<path fill-rule="evenodd" clip-rule="evenodd" d="M6.21816 8.17037C6.21813 8.17036 6.2182 8.17038 6.21816 8.17037V8.17037ZM6.99863 8.13566C7.34111 7.97358 7.57947 7.62472 7.57947 7.22035C7.57947 6.66151 7.12636 6.2084 6.56752 6.2084C6.00867 6.2084 5.55557 6.66151 5.55557 7.22035C5.55557 7.61776 5.78471 7.96171 6.11807 8.12725V8.73409H6.99863V8.13566ZM6.43613 7.22035C6.43613 7.14854 6.49571 7.08896 6.56752 7.08896C6.63933 7.08896 6.69891 7.14854 6.69891 7.22035C6.69891 7.29216 6.63933 7.35174 6.56752 7.35174C6.49571 7.35174 6.43613 7.29216 6.43613 7.22035Z" fill="white"/>
</svg>
